packages/foundations/assets/icons/functional/images/arrows/chevron_up_24.svg

<svg width="24" height="24" viewBox="0 0 24 24" fill="none" xmlns="http://www.w3.org/2000/svg">
<g clip-path="url(#clip0_77_517)">
<path fill-rule="evenodd" clip-rule="evenodd" d="M18 15.9998C18.563 15.9998 19 15.5618 19 14.9998C19 14.7498 18.875 14.4998 18.687 14.3118L12.719 8.28183C12.5242 8.09938 12.2669 7.99847 12 7.99983C11.75 7.99983 11.469 8.09383 11.281 8.28083L5.312 14.3128C5.125 14.4998 5 14.7498 5 14.9998C5 15.5628 5.438 15.9998 6 15.9998C6.281 15.9998 6.5 15.9058 6.719 15.7188L12 10.4378L17.281 15.7178C17.3758 15.8106 17.4884 15.8834 17.6119 15.9318C17.7354 15.9803 17.8674 16.0034 18 15.9998Z" fill="#1A1C1F"/>
</g>
<defs>
<clipPath id="clip0_77_517">
<rect width="24" height="24" fill="white"/>
</clipPath>
</defs>
</svg>

<svg xmlns="http://www.w3.org/2000/svg" width="24" height="24" fill="none"><g clip-path="url(#a)"><path fill="#1A1C1F" fill-rule="evenodd" d="M18 16c.563 0 1-.438 1-1 0-.25-.125-.5-.313-.688l-5.968-6.03A1.04 1.04 0 0 0 12 8c-.25 0-.531.094-.719.28l-5.969 6.033C5.125 14.5 5 14.75 5 15c0 .563.438 1 1 1 .281 0 .5-.094.719-.281L12 10.438l5.281 5.28A1 1 0 0 0 18 16" clip-rule="evenodd"/></g><defs><clipPath id="a"><path fill="#fff" d="M0 0h24v24H0z"/></clipPath></defs></svg>
